X: 2089
T: Çayıra Serdim Postu
C: (Anonim)
O: Turkey
F: http://compmusic.upf.edu/node/140
N: karcigar--turku--aksak--cayira_serdim--
N: makam= karcigar
N: form= turku
N: usul= aksak = 9/8
M: 9/8
L: 1/16
K: C _2/4B _3/4e ^3/4f 
Q: 1/4=288
%%MIDI tuningsystem comma53
B2c2 d2e2 d2c2 g2f2 e2 | d2 c2B2 A2B2 c2d6  | \
w:  ARANAĞME  |   | 
B2c2 d2e2 d2c2 e2d2 c2 | 
w:   | 
c2 B2B2 A2AB ABGA Bcdc  | B2c2 d2e2 d2c2 g2f2 e2 | 
w:   |  ARANAĞME  | 
d2 c2B2 A2B2 c2d6  | B2c2 d2e2 d2c2 e2d2 c2 | \
w:   |   | 
c2 B2B2 A2A4g4fa  | 
w:   | 
g4 f2g2 g4 g2f2 e2 | f2 e2e2 d2d2 z2g2 f2g2  | \
w:  *  Ça yı ra  ser  |  dim  *  pos *  tu  i *  ma  | 
a2z2 f2g2 g4 g2f2 e2 | 
w:  nım   Ça yı ra  ser  | 
f2 e2e2 d2d2 z2e2 d2c2  | d2z2 B2c2 d4 e2d2 c2 | \
w:  dim  *  pos *  tu  i *  ma  |  nım   Şu  ge len  ki  | 
e3dc2 B2c2 z2_1/4e4d2  | 
w:  min  *  dos *  tu  i ma  | 
_1/4e2z2 B2c2 d4 _3/4e2d2 c2 | c2 B2B2 A2A4g4fa  | \
w:  nım   Şu  ge len  ki  |  min  *  dos *  tu   SAZ  | 
g4 f2g2 g4 g2f2 e2 | 
w:  *  Gö ren  ma şal  | 
f2 e2e2 d2d2 z2g2 f2g2  | a2z2 f2g2 g4 g2f2 e2 | \
w:  lah  *  de *  sin  i *  ma  |  nım   Gö ren  ma şal  | 
f2 e2e2 d2d2 z2e2 d2c2  | 
w:  lah  *  de *  sin  i *  ma  | 
d2z2 B2c2 d4 e2d2 c2 | e3dc2 B2c2 z2_1/4e4d2  | \
w:  nım   Ki min  var  böy  |  le  *  dos *  tu  i ma  | 
_1/4e2z2 B2c2 d4 _3/4e2d2 c2 | 
w:  nım   Ki min  var  böy  | 
c2 B2B2 A2A4AB cded  | =e3e e2e2 e3e e2e2 e2 | \
w:  le  *  dos *  tu   SAZ  |  Kaş la rı na  göz le ri ne  de    | 
=e2 e2e2 e2e3ee2 e2e2  | 
w:  Yâ rin  şi rin  söz le ri ne  de    | 
d2d2 d2d2 d2d2 e2d2 c2 | e3dc2 B2c4E2 E2E2  | \
w:  Ço lu ğu na  ço cu ğu na  da   |  ma *  şal *  lah   ma şal lah    | 
=e3e e2e2 e3e e2e2 e2 | 
w:  Kaş la rı na  göz le ri ne  de    | 
=e2 e2e2 e2e3ee2 e2e2  | d2d2 d2d2 d2d2 e2d2 c2 | \
w:  Yâ rin  şi rin  söz le ri ne  de    |  Ço lu ğu na  ço cu ğu na  da   | 
c2 B2B2 A2A4GA Bcdc  | 
w:  ma *  şal *  lah   SAZ  | 
B2c2 d2e2 d2c2 g2f2 e2 | d2 c2B2 A2B2 c2d6  | \
w:  ARANAĞME  |   | 
B2c2 d2e2 d2c2 e2d2 c2 | 
w:   | 
c2 B2B2 A2AB ABGA Bcdc  | B2c2 d2e2 d2c2 g2f2 e2 | 
w:   |  ARANAĞME  | 
d2 c2B2 A2B2 c2d6  | B2c2 d2e2 d2c2 e2d2 c2 | \
w:   |   | 
c2 B2B2 A2A4g4fa  | 
w:   | 
g4 f2g2 g4 g2f2 e2 | f2 e2e2 d2d2 z2g2 f2g2  | \
w:  *  Ça yı ra  ser  |  dim  *  pos *  tu  i *  ma  | 
a2z2 f2g2 g4 g2f2 e2 | 
w:  nım   Ça yı ra  ser  | 
f2 e2e2 d2d2 z2e2 d2c2  | d2z2 B2c2 d4 e2d2 c2 | \
w:  dim  *  pos *  tu  i *  ma  |  nım   Şu  ge len  ki  | 
e3dc2 B2c2 z2_1/4e4d2  | 
w:  min  *  dos *  tu  i ma  | 
_1/4e2z2 B2c2 d4 _3/4e2d2 c2 | c2 B2B2 A2A4g4fa  | \
w:  nım   Şu  ge len  ki  |  min  *  dos *  tu   SAZ  | 
g4 f2g2 g4 g2f2 e2 | 
w:  *  Gö ren  ma şal  | 
f2 e2e2 d2d2 z2g2 f2g2  | a2z2 f2g2 g4 g2f2 e2 | \
w:  lah  *  de *  sin  i *  ma  |  nım   Gö ren  ma şal  | 
f2 e2e2 d2d2 z2e2 d2c2  | 
w:  lah  *  de *  sin  i *  ma  | 
d2z2 B2c2 d4 e2d2 c2 | e3dc2 B2c2 z2_1/4e4d2  | \
w:  nım   Ki min  var  böy  |  le  *  dos *  tu  i ma  | 
_1/4e2z2 B2c2 d4 _3/4e2d2 c2 | 
w:  nım   Ki min  var  böy  | 
c2 B2B2 A2A4AB cded  | =e3e e2e2 e3e e2e2 e2 | \
w:  le  *  dos *  tu   SAZ  |  Kaş la rı na  göz le ri ne  de    | 
=e2 e2e2 e2e3ee2 e2e2  | 
w:  Yâ rin  şi rin  söz le ri ne  de    | 
d2d2 d2d2 d2d2 e2d2 c2 | e3dc2 B2c4E2 E2E2  | \
w:  Ço lu ğu na  ço cu ğu na  da   |  ma *  şal *  lah   ma şal lah    | 
=e3e e2e2 e3e e2e2 e2 | 
w:  Kaş la rı na  göz le ri ne  de    | 
=e2 e2e2 e2e3ee2 e2e2  | d2d2 d2d2 d2d2 e2d2 c2 | \
w:  Yâ rin  şi rin  söz le ri ne  de    |  Ço lu ğu na  ço cu ğu na  da   | 
c2 B2B2 A2A4|
w:  ma *  şal *  lah    | 


